packages/icons/src/heart.svg

<svg width="15" height="15" viewBox="0 0 15 15" fill="none" xmlns="http://www.w3.org/2000/svg">
  <path
    fill-rule="evenodd"
    clip-rule="evenodd"
    d="M4.89346 2.35248C3.49195 2.35248 2.35248 3.49359 2.35248 4.90532C2.35248 6.38164 3.20954 7.9168 4.37255 9.33522C5.39396 10.581 6.59464 11.6702 7.50002 12.4778C8.4054 11.6702 9.60608 10.581 10.6275 9.33522C11.7905 7.9168 12.6476 6.38164 12.6476 4.90532C12.6476 3.49359 11.5081 2.35248 10.1066 2.35248C9.27059 2.35248 8.81894 2.64323 8.5397 2.95843C8.27877 3.25295 8.14623 3.58566 8.02501 3.88993C8.00391 3.9429 7.98315 3.99501 7.96211 4.04591C7.88482 4.23294 7.7024 4.35494 7.50002 4.35494C7.29765 4.35494 7.11523 4.23295 7.03793 4.04592C7.01689 3.99501 6.99612 3.94289 6.97502 3.8899C6.8538 3.58564 6.72126 3.25294 6.46034 2.95843C6.18109 2.64323 5.72945 2.35248 4.89346 2.35248ZM1.35248 4.90532C1.35248 2.94498 2.936 1.35248 4.89346 1.35248C6.0084 1.35248 6.73504 1.76049 7.20884 2.2953C7.32062 2.42147 7.41686 2.55382 7.50002 2.68545C7.58318 2.55382 7.67941 2.42147 7.79119 2.2953C8.265 1.76049 8.99164 1.35248 10.1066 1.35248C12.064 1.35248 13.6476 2.94498 13.6476 4.90532C13.6476 6.74041 12.6013 8.50508 11.4008 9.96927C10.2636 11.3562 8.92194 12.5508 8.00601 13.3664C7.94645 13.4194 7.88869 13.4709 7.83291 13.5206C7.64324 13.6899 7.3568 13.6899 7.16713 13.5206C7.11135 13.4709 7.05359 13.4194 6.99403 13.3664C6.0781 12.5508 4.73641 11.3562 3.59926 9.96927C2.39872 8.50508 1.35248 6.74041 1.35248 4.90532Z"
    fill="currentColor"
  />
</svg>

<svg xmlns="http://www.w3.org/2000/svg" width="15" height="15" fill="none"><path fill="currentColor" fill-rule="evenodd" d="M4.893 2.352a2.547 2.547 0 0 0-2.54 2.553c0 1.477.857 3.012 2.02 4.43 1.021 1.246 2.222 2.335 3.127 3.143.905-.808 2.106-1.897 3.127-3.143 1.163-1.418 2.02-2.953 2.02-4.43a2.547 2.547 0 0 0-2.54-2.553c-.836 0-1.288.291-1.567.606-.261.295-.394.628-.515.932l-.063.156a.5.5 0 0 1-.924 0l-.063-.156c-.121-.304-.254-.637-.515-.932-.279-.315-.73-.606-1.567-.606m-3.54 2.553a3.547 3.547 0 0 1 3.54-3.553c1.115 0 1.842.408 2.316.943.112.126.208.259.291.39.083-.131.18-.264.291-.39.474-.535 1.2-.943 2.316-.943a3.547 3.547 0 0 1 3.54 3.553c0 1.835-1.046 3.6-2.246 5.064-1.137 1.387-2.48 2.582-3.395 3.397l-.173.155a.5.5 0 0 1-.666 0l-.173-.155c-.916-.815-2.258-2.01-3.395-3.397C2.4 8.505 1.352 6.74 1.352 4.905" clip-rule="evenodd"/></svg>
